X: 59
T: BRAES OF MARR
%R: strathspey
B: Jean White "100 Popular Hornpipes, Reels, Jigs and Country Dances", Boston 1880 p.26
F: http://www.loc.gov/resource/sm1880.09124.0#seq-1
Z: 2014 John Chambers <jc:trillian.mit.edu>
M: C|
L: 1/8
K: D
% - - - - - - - - - - - - - - - - - - - - - - - - - - - - -
A |\
F<AA>B d>ef>e | d<BB>A d<BB>A |\
F<AA>B d>ef>e | e<fa>f e2d :|
g |\
f<aa>d f>da>d | g<bb>e g>eb>e |\
f<aa>d f>da>d | g>bf>a Te2d>g |
f<aa>d f>da>d | g<bb>e g>eb>e |\
f<ae>f d>eB>d | A>d F>d E2 D H|]
% - - - - - - - - - - - - - - - - - - - - - - - - - - - - -

%%sep 1 1 500
%%sep 1 1 500
